packages/icons/src/skipped.svg

<svg viewBox="0 0 16 13" xmlns="http://www.w3.org/2000/svg"><path d="m3.24972 8.54297h-2.503882c-.408435 0-.745838.3374-.745838.74584v2.52159c0 .4085.337403.7459.745838.7459h2.521642c.40844 0 .74584-.3374.74584-.7459v-2.52159c-.01776-.40844-.35516-.74584-.7636-.74584z"/><path d="m15.2364 8.54297h-2.5039c-.4084 0-.7458.3374-.7458.74584v2.52159c0 .4085.3374.7459.7458.7459h2.5217c.4084 0 .7458-.3374.7458-.7459v-2.52159c-.0177-.40844-.3551-.74584-.7636-.74584z"/><path d="m9.25192 8.54297h-2.52165c-.40843 0-.74583.3374-.74583.74584v2.52159c0 .4085.3374.7459.74583.7459h2.52165c.40843 0 .74583-.3374.74583-.7459v-2.52159c-.01775-.40844-.3374-.74584-.74583-.74584zm0 3.24973h-2.52165v-2.52165h2.52165z"/><path d="m14.6504 6.71254.8879-4.33296-1.5982.53274c-.6038-.81687-1.3851-1.49168-2.2908-1.988902-1.101-.603773-2.36182-.923418-3.65816-.923418-3.9778 0-7.209768 3.01887-7.209768 6.71254 0 .30189.248608.5505.550498.5505s.5505-.24861.5505-.5505c0-3.0899 2.73474-5.61154 6.10877-5.61154 1.90011 0 3.67596.81687 4.83016 2.16648l-1.4916.51498z"/></svg>

<svg viewBox="0 0 16 13" xmlns="http://www.w3.org/2000/svg">
<path d="M3.24972 8.54297H0.745838C0.337403 8.54297 0 8.88037 0 9.28881V11.8104C0 12.2189 0.337403 12.5563 0.745838 12.5563H3.26748C3.67592 12.5563 4.01332 12.2189 4.01332 11.8104V9.28881C3.99556 8.88037 3.65816 8.54297 3.24972 8.54297Z" />
<path d="M15.2364 8.54297H12.7325C12.3241 8.54297 11.9867 8.88037 11.9867 9.28881V11.8104C11.9867 12.2189 12.3241 12.5563 12.7325 12.5563H15.2542C15.6626 12.5563 16 12.2189 16 11.8104V9.28881C15.9823 8.88037 15.6449 8.54297 15.2364 8.54297Z" />
<path d="M9.25192 8.54297H6.73027C6.32184 8.54297 5.98444 8.88037 5.98444 9.28881V11.8104C5.98444 12.2189 6.32184 12.5563 6.73027 12.5563H9.25192C9.66035 12.5563 9.99775 12.2189 9.99775 11.8104V9.28881C9.98 8.88037 9.66035 8.54297 9.25192 8.54297ZM9.25192 11.7927H6.73027V9.27105H9.25192V11.7927Z" />
<path d="M14.6504 6.71254L15.5383 2.37958L13.9401 2.91232C13.3363 2.09545 12.555 1.42064 11.6493 0.923418C10.5483 0.319645 9.28748 0 7.99114 0C4.01334 0 0.781372 3.01887 0.781372 6.71254C0.781372 7.01443 1.02998 7.26304 1.33187 7.26304C1.63376 7.26304 1.88237 7.01443 1.88237 6.71254C1.88237 3.62264 4.61711 1.101 7.99114 1.101C9.89125 1.101 11.6671 1.91787 12.8213 3.26748L11.3297 3.78246L14.6504 6.71254Z" />
</svg>
